logos/webhint.svg

<?xml version="1.0" encoding="UTF-8"?>
<svg width="256px" height="302px" viewBox="0 0 256 302" version="1.1" xmlns="http://www.w3.org/2000/svg" xmlns:xlink="http://www.w3.org/1999/xlink" preserveAspectRatio="xMidYMid">
    <g>
        <path d="M239.682453,239.403579 L213.285472,239.403579 C210.14205,239.465638 207.311874,237.508481 206.260368,234.545494 C205.208862,231.582508 206.172172,228.279116 208.65151,226.345768 C238.141946,202.216351 255.293958,166.16129 255.408943,128.057466 C255.412363,57.82492 198.846221,0.694998713 128.617094,0 C74.5759863,-0.293039926 26.1932818,33.4420943 7.78562495,84.2523938 C-10.6220319,135.062693 4.92654099,191.958978 46.6167925,226.345768 C49.0960322,228.279051 50.0593637,231.582281 49.0080188,234.5452 C47.9566739,237.508118 45.1267434,239.465369 41.983434,239.403579 L15.4451699,239.403579 C6.94689494,239.480278 0.0766757367,246.351034 0,254.849315 L0,286.301089 C-0.0368900478,290.421503 1.57361046,294.386086 4.47395095,297.313073 C7.37429144,300.240059 11.3239806,301.8869 15.4445661,301.8869 L239.963208,301.8869 C244.059616,301.8869 247.988301,300.25988 250.884956,297.363339 C253.78161,294.466797 255.408943,290.538176 255.408943,286.441768 L255.408943,254.849315 C255.408943,246.295917 248.516261,239.340376 239.963208,239.263504 L239.682453,239.403579 Z" fill="#FFFFFF"></path>
        <path d="M127.634151,14.7432681 C65.6894101,15.132701 15.7505013,65.5943088 16.0072622,127.539724 C16.2660097,189.485139 66.6231224,239.529416 128.568941,239.40139 C190.514759,239.272871 240.665396,189.020474 240.665396,127.074523 C240.665396,97.1609424 228.735004,68.4826756 207.517105,47.3965893 C186.299206,26.310503 157.547147,14.5584709 127.634151,14.7432681 Z M226.905396,127.074523 C226.828242,182.178641 182.17676,226.830123 127.072642,226.907381 C100.635091,226.945459 75.2775711,216.421586 56.6361755,197.674749 C37.99478,178.927912 27.6140989,153.511437 27.8013963,127.074523 C27.8785507,71.9704047 72.5300331,27.3189223 127.634151,27.2417679 C182.394604,27.8032773 226.905396,72.313466 226.905396,127.074523 L226.905396,127.074523 Z" fill="#4700A3"></path>
        <path d="M141.956264,90.0058433 C149.156279,89.4310619 156.348721,91.2045467 162.456189,95.0606358 C161.94765,96.306883 161.708354,97.6465696 161.754,98.9918056 C161.754,102.343341 163.085392,105.557607 165.455286,107.927501 C167.82518,110.297394 171.039445,111.628787 174.390981,111.628787 C175.957839,111.776688 177.538169,111.585171 179.02434,111.067277 L179.02434,111.067277 C183.032184,117.570463 185.169709,125.052218 185.202755,132.690824 C185.202755,176.077994 150.942226,180.150447 128.19566,180.150447 C69.3633586,180.150447 61.3597359,157.263202 61.3597359,151.646296 L61.3597359,151.646296 L58.551585,151.646296 C48.8125651,151.569764 40.9363437,143.693542 40.8598114,133.954523 L40.8598114,133.954523 L40.8598114,130.444183 L48.863434,130.444183 C54.6290414,130.277234 60.139086,132.824493 63.7470567,137.324787 C67.0317016,132.741459 72.2905855,129.98171 77.9284906,129.882674 L77.9284906,129.882674 L86.0721887,129.882674 L86.0721887,134.516032 C86.1853616,138.995855 84.4943064,143.333382 81.3788139,146.554458 C78.2633214,149.775533 73.9845404,151.610158 69.503434,151.646296 L69.503434,151.646296 L68.3804152,151.646296 C68.9419246,154.455051 77.5070567,155.57807 79.754302,155.57807 C85.6837701,155.945847 91.2818775,152.817327 94.0758114,147.574447 C96.7075569,142.476635 97.6891168,136.686655 96.8845661,131.006296 C96.8845661,108.259126 103.062377,90.0058433 141.956264,90.0058433 Z M196.716717,76.2452396 L185.764868,93.9376169 L182.394604,100.817617 C181.969698,101.659964 181.399206,102.420551 180.709472,103.064258 C178.650591,104.802676 175.874806,105.431028 173.267962,104.748787 C171.965581,104.657145 170.753186,104.051056 169.898302,103.064258 C167.095856,100.004905 167.095856,95.311235 169.898302,92.2518811 C170.459811,91.6903716 171.021321,91.6903716 171.442755,91.1288622 L171.442755,91.1288622 L196.716717,76.2452396 Z" fill="#4700A3"></path>
        <path d="M50.2672076,280.404032 L44.370151,264.818221 L41.4213208,264.818221 L35.5242642,280.404032 L29.7672831,264.818221 L26.3976227,264.818221 L33.6990567,284.335202 L37.068717,284.335202 L42.8256982,269.452183 L48.5826793,284.335202 L51.9523397,284.335202 L59.2537737,264.818221 L56.0241887,264.818221 L50.2672076,280.404032 Z M75.4010944,265.801164 C73.8605273,264.93287 72.1142347,264.496297 70.346302,264.537466 C68.5653075,264.538781 66.8181386,265.02399 65.2915095,265.94124 C63.819523,266.764525 62.6044556,267.979593 61.7811699,269.451579 C60.08366,272.657495 60.08366,276.495928 61.7811699,279.701843 C62.6275628,281.240068 63.8935005,282.506215 65.431585,283.352862 C67.1687363,284.237219 69.0999679,284.67171 71.0484906,284.61656 C72.5406017,284.623847 74.0195642,284.33745 75.4010944,283.773692 C76.7049182,283.269978 77.8629231,282.449767 78.7707548,281.386975 L76.8054718,279.140334 C75.3713918,280.717767 73.3195196,281.589642 71.1885661,281.527051 C69.4011595,281.574174 67.6565342,280.9762 66.2738491,279.842523 C64.978264,278.80652 64.1660043,277.283096 64.0278114,275.629994 L79.8943774,275.629994 L79.8943774,274.647051 C79.932351,272.790156 79.4974911,270.954104 78.6306793,269.311504 C77.8900176,267.871832 76.7741799,266.658993 75.4010944,265.801164 L75.4010944,265.801164 Z M64.1678869,273.242674 C64.2642125,271.639912 64.9671146,270.13394 66.1337737,269.030749 C68.5961174,267.059238 72.0964865,267.059238 74.5588303,269.030749 C75.7773184,270.110912 76.5317553,271.619785 76.6647925,273.242674 L64.1678869,273.242674 Z M100.394302,265.801164 C98.8463436,264.951577 97.1051609,264.516281 95.3395095,264.537466 C93.9835326,264.531575 92.6423082,264.818892 91.4077359,265.37973 C90.2897927,265.932498 89.3254599,266.752491 88.6001887,267.767051 L88.6001887,256.955277 L84.9491699,256.955277 L84.9491699,284.335202 L88.3188303,284.335202 L88.3188303,281.246296 C89.0879496,282.274912 90.1014823,283.09545 91.2676604,283.633617 C92.533822,284.263118 93.9256029,284.599094 95.3395095,284.61656 C97.1177378,284.594849 98.859725,284.110871 100.394302,283.212183 C101.866288,282.388897 103.081356,281.17383 103.904642,279.701843 C104.814864,278.12089 105.298793,276.330602 105.309019,274.506372 C105.298689,272.682347 104.814763,270.89228 103.904642,269.311504 C103.087349,267.834993 101.870812,266.618456 100.394302,265.801164 L100.394302,265.801164 Z M100.815736,278.157391 C100.278312,279.211018 99.4497228,280.088224 98.4284152,280.684787 C96.3288156,281.833471 93.7886939,281.833471 91.6890944,280.684787 C90.6677868,280.088224 89.8391979,279.211018 89.3017737,278.157391 C88.1960674,275.898523 88.1960674,273.255503 89.3017737,270.996636 C89.8543393,269.990036 90.6824945,269.161881 91.6890944,268.609315 C93.7886939,267.460631 96.3288156,267.460631 98.4284152,268.609315 C99.4350151,269.161881 100.26317,269.990036 100.815736,270.996636 C101.965682,273.245052 101.965682,275.908975 100.815736,278.157391 L100.815736,278.157391 Z M120.613472,264.677541 C119.222595,264.632776 117.837169,264.871693 116.541623,265.37973 C115.450983,265.847945 114.488148,266.570227 113.733472,267.486296 L113.733472,256.955277 L110.082453,256.955277 L110.082453,284.335202 L113.733472,284.335202 L113.733472,274.225617 C113.637992,272.473609 114.244158,270.755705 115.418,269.451579 C116.618722,268.293428 118.24512,267.683693 119.911283,267.767051 C121.3605,267.664666 122.786383,268.173753 123.843057,269.170824 C124.829285,270.345631 125.331401,271.851763 125.247434,273.383353 L125.247434,284.335806 L128.757774,284.335806 L128.757774,273.102598 C128.95331,270.796488 128.191501,268.511497 126.651208,266.784107 C125.032974,265.237184 122.849298,264.424639 120.613472,264.537466 L120.613472,264.677541 Z M135.357019,264.818221 L138.867359,264.818221 L138.867359,284.475881 L135.357019,284.475881 L135.357019,264.818221 Z M137.182226,256.253082 C136.479496,256.25145 135.811757,256.559587 135.357019,257.095353 C134.981325,257.520908 134.780705,258.072938 134.79551,258.640409 C134.743356,259.255209 134.946416,259.86439 135.357019,260.324938 C135.8372,260.808953 136.501456,261.064504 137.182226,261.027126 C137.814586,261.025464 138.42044,260.772917 138.866755,260.324938 C139.328678,259.888114 139.583838,259.275992 139.568943,258.640409 C139.603314,258.001269 139.345149,257.381185 138.867359,256.955277 C138.398808,256.558278 137.795259,256.357167 137.182226,256.393768 L137.182226,256.253082 Z M156.137698,264.677541 C154.699285,264.604571 153.26214,264.84413 151.92517,265.37973 C150.793431,265.911299 149.824188,266.735468 149.117623,267.767051 L149.117623,264.677541 L145.606679,264.677541 L145.606679,284.335202 L149.117019,284.335202 L149.117019,274.225617 C148.982914,272.425962 149.591663,270.6499 150.801547,269.3109 C152.036095,268.115526 153.721517,267.502845 155.43551,267.626372 C156.884815,267.524148 158.31071,268.033459 159.367283,269.030749 C160.353148,270.20549 160.855035,271.711369 160.771057,273.242674 L160.771057,284.195126 L164.281396,284.195126 L164.281396,272.961919 C164.422578,270.638031 163.611668,268.356799 162.035359,266.643428 C160.451259,265.132498 158.32556,264.322956 156.137698,264.397391 L156.137698,264.677541 Z M178.042,281.527051 C177.160063,281.619535 176.28333,281.310218 175.654679,280.684787 C175.124808,280.007664 174.873818,279.153605 174.953094,278.297466 L174.953094,267.626372 L180.569396,267.626372 L180.569396,264.818221 L174.953094,264.818221 L174.953094,260.465013 L171.442755,260.465013 L171.442755,264.677541 L168.072491,264.677541 L168.072491,267.626372 L171.442755,267.626372 L171.442755,278.438145 C171.32185,280.084039 171.879938,281.707689 172.987208,282.931428 C174.239845,284.097169 175.91173,284.705008 177.620566,284.615957 C178.433091,284.597704 179.238096,284.4558 180.007887,284.195126 C180.677664,283.997095 181.299134,283.66241 181.833094,283.212183 L180.850151,280.684787 C180.064815,281.343087 179.066449,281.692547 178.042,281.66773 L178.042,281.527051 Z" fill="#18186D"></path>
        <path d="M187.449396,279.561164 C186.771418,279.540827 186.113719,279.793855 185.624189,280.263353 C185.140011,280.743677 184.884447,281.408188 184.922,282.089164 C184.922,283.485006 186.053554,284.61656 187.449396,284.61656 C188.081756,284.614898 188.68761,284.362351 189.133925,283.914372 C189.603643,283.42494 189.856893,282.767229 189.836717,282.089164 C189.87427,281.408188 189.618706,280.743677 189.134528,280.263353 C188.697705,279.80143 188.085583,279.546269 187.45,279.561164 L187.449396,279.561164 Z M196.716717,256.253089 C196.05893,256.273496 195.443187,256.581367 195.032189,257.095353 C194.604845,257.498618 194.352544,258.05329 194.329396,258.640409 C194.295364,259.279441 194.553741,259.899279 195.031585,260.324938 C195.478047,260.773064 196.084148,261.025624 196.716717,261.027126 C197.349077,261.025464 197.954931,260.772917 198.401245,260.324938 C198.849224,259.878623 199.101772,259.272769 199.103434,258.640409 C199.137804,258.001269 198.87964,257.381185 198.401849,256.955277 C197.926576,256.57039 197.327864,256.37089 196.716717,256.393768 L196.716717,256.253089 Z M194.89151,264.818221 L198.401849,264.818221 L198.401849,284.475881 L194.89151,284.475881 L194.89151,264.818221 Z M222.552189,269.451579 C221.699594,267.918178 220.435175,266.653759 218.901774,265.801164 C215.602882,264.078081 211.669647,264.078081 208.370755,265.801164 C206.837353,266.653759 205.572934,267.918178 204.72034,269.451579 C202.99777,272.651224 202.99777,276.502199 204.72034,279.701843 C205.572845,281.235467 206.837272,282.500104 208.370755,283.352862 C211.66364,285.100247 215.608888,285.100247 218.901774,283.352862 C220.435256,282.500104 221.699684,281.235467 222.552189,279.701843 C224.274759,276.502199 224.274759,272.651224 222.552189,269.451579 L222.552189,269.451579 Z M219.463283,278.157391 C218.932683,279.215616 218.102704,280.094516 217.076566,280.684787 C214.976808,281.833691 212.436399,281.833691 210.336642,280.684787 C209.320188,280.082134 208.493102,279.206519 207.949321,278.157391 C206.799375,275.908975 206.799375,273.245052 207.949321,270.996636 C208.507995,269.994635 209.334641,269.167989 210.336642,268.609315 C212.436399,267.460411 214.976808,267.460411 217.076566,268.609315 C218.087776,269.15551 218.917344,269.985288 219.463283,270.996636 C220.590602,273.250448 220.590602,275.903578 219.463283,278.157391 L219.463283,278.157391 Z" fill="#4046DD"></path>
    </g>
</svg>

<svg preserveAspectRatio="xMidYMid" viewBox="0 0 256 302" xmlns="http://www.w3.org/2000/svg">
  <path fill="#FFF" d="M239.682 239.404h-26.397a7.301 7.301 0 0 1-4.633-13.058 127.493 127.493 0 0 0 46.757-98.289C255.412 57.825 198.846.695 128.617 0 74.576-.293 26.193 33.442 7.786 84.252c-18.408 50.81-2.86 107.707 38.83 142.094a7.301 7.301 0 0 1-4.633 13.058H15.445C6.947 239.48.077 246.35 0 254.849v31.452a15.448 15.448 0 0 0 15.445 15.586h224.518a15.446 15.446 0 0 0 15.446-15.445v-31.593c0-8.553-6.893-15.509-15.446-15.585l-.28.14Z"/>
  <path fill="#4700A3" d="M127.634 14.743C65.69 15.133 15.751 65.594 16.007 127.54c.259 61.945 50.616 111.99 112.562 111.861 61.946-.128 112.096-50.38 112.096-112.326a112.331 112.331 0 0 0-113.03-112.332Zm99.271 112.332c-.077 55.104-44.728 99.755-99.832 99.832A99.131 99.131 0 0 1 27.8 127.075c.078-55.105 44.729-99.756 99.833-99.833 54.76.561 99.271 45.071 99.271 99.833Z"/>
  <path fill="#4700A3" d="M141.956 90.006a33.418 33.418 0 0 1 20.5 5.055 9.548 9.548 0 0 0-.702 3.93 12.637 12.637 0 0 0 12.637 12.638 10.952 10.952 0 0 0 4.633-.562 41.557 41.557 0 0 1 6.179 21.624c0 43.387-34.26 47.46-57.007 47.46-58.833 0-66.836-22.888-66.836-28.505h-2.808c-9.74-.076-17.616-7.952-17.692-17.691v-3.51h8.003a18.394 18.394 0 0 1 14.884 6.88 17.832 17.832 0 0 1 14.181-7.442h8.144v4.633a16.709 16.709 0 0 1-16.569 17.13H68.38c.562 2.81 9.127 3.932 11.374 3.932a15.164 15.164 0 0 0 14.322-8.004 27.661 27.661 0 0 0 2.809-16.568c0-22.747 6.177-41 45.071-41Zm54.76-13.76-10.951 17.692-3.37 6.88a8.004 8.004 0 0 1-1.686 2.246 8.284 8.284 0 0 1-7.441 1.685 4.915 4.915 0 0 1-3.37-1.685 8.004 8.004 0 0 1 0-10.812c.562-.562 1.123-.562 1.545-1.123l25.274-14.884Z"/>
  <path fill="#18186D" d="m50.267 280.404-5.897-15.586h-2.949l-5.897 15.586-5.757-15.586h-3.37l7.302 19.517h3.37l5.757-14.883 5.757 14.883h3.37l7.3-19.517h-3.229l-5.757 15.586Zm25.134-14.603a9.829 9.829 0 0 0-5.055-1.264 9.829 9.829 0 0 0-5.054 1.404 9.127 9.127 0 0 0-3.51 3.51 10.952 10.952 0 0 0 0 10.25 9.267 9.267 0 0 0 3.65 3.652 11.654 11.654 0 0 0 5.616 1.264 11.39 11.39 0 0 0 4.353-.843 8.424 8.424 0 0 0 3.37-2.387l-1.966-2.247a7.301 7.301 0 0 1-5.616 2.387 7.442 7.442 0 0 1-4.915-1.684 6.038 6.038 0 0 1-2.246-4.213h15.866v-.983a10.952 10.952 0 0 0-1.263-5.335 8.987 8.987 0 0 0-3.23-3.51Zm-11.233 7.442a6.318 6.318 0 0 1 1.966-4.212 6.74 6.74 0 0 1 8.425 0 6.318 6.318 0 0 1 2.106 4.212H64.168Zm36.226-7.442a10.25 10.25 0 0 0-5.054-1.264 9.407 9.407 0 0 0-3.932.843 7.582 7.582 0 0 0-2.808 2.387v-10.812h-3.65v27.38h3.369v-3.089a7.722 7.722 0 0 0 2.949 2.388 9.407 9.407 0 0 0 4.072.983 10.25 10.25 0 0 0 5.054-1.405 9.127 9.127 0 0 0 3.51-3.51 10.531 10.531 0 0 0 1.405-5.196 10.531 10.531 0 0 0-1.404-5.194 8.987 8.987 0 0 0-3.51-3.51Zm.422 12.356a6.178 6.178 0 0 1-2.388 2.528 7.02 7.02 0 0 1-6.739 0 6.178 6.178 0 0 1-2.387-2.528 8.144 8.144 0 0 1 0-7.16 6.038 6.038 0 0 1 2.387-2.388 7.02 7.02 0 0 1 6.74 0 6.038 6.038 0 0 1 2.387 2.388 7.863 7.863 0 0 1 0 7.16Zm19.797-13.48a10.25 10.25 0 0 0-4.071.703 7.442 7.442 0 0 0-2.809 2.106v-10.53h-3.65v27.38h3.65v-10.11a6.6 6.6 0 0 1 1.685-4.774 6.038 6.038 0 0 1 4.493-1.685 5.195 5.195 0 0 1 3.932 1.404 6.038 6.038 0 0 1 1.404 4.212v10.953h3.51v-11.233a8.424 8.424 0 0 0-2.106-6.319 8.144 8.144 0 0 0-6.038-2.247v.14Zm14.744.141h3.51v19.658h-3.51v-19.658Zm1.825-8.565a2.387 2.387 0 0 0-1.825.842 2.246 2.246 0 0 0-.561 1.545c-.053.615.15 1.224.561 1.685.48.484 1.144.74 1.825.702a2.387 2.387 0 0 0 1.685-.702 2.246 2.246 0 0 0 .702-1.685 2.106 2.106 0 0 0-.702-1.685 2.387 2.387 0 0 0-1.685-.561v-.14Zm18.956 8.425a9.97 9.97 0 0 0-4.213.702 7.02 7.02 0 0 0-2.807 2.387v-3.09h-3.511v19.658h3.51v-10.11a6.6 6.6 0 0 1 1.685-4.914 6.038 6.038 0 0 1 4.634-1.685 5.195 5.195 0 0 1 3.931 1.405 6.038 6.038 0 0 1 1.404 4.212v10.952h3.51v-11.233a8.565 8.565 0 0 0-2.246-6.319 8.144 8.144 0 0 0-5.897-2.246v.28Zm21.904 16.85a2.949 2.949 0 0 1-2.387-.843 3.37 3.37 0 0 1-.702-2.388v-10.67h5.616v-2.809h-5.616v-4.353h-3.51v4.213h-3.37v2.948h3.37v10.812a6.038 6.038 0 0 0 1.544 4.493 6.318 6.318 0 0 0 4.634 1.685 8.004 8.004 0 0 0 2.387-.42 5.055 5.055 0 0 0 1.825-.984l-.983-2.527a4.213 4.213 0 0 1-2.808.983v-.14Z"/>
  <path fill="#4046DD" d="M187.45 279.561a2.527 2.527 0 0 0-1.826.702 2.387 2.387 0 0 0-.702 1.826 2.527 2.527 0 0 0 2.527 2.528 2.387 2.387 0 0 0 1.685-.703c.47-.49.723-1.147.703-1.825a2.387 2.387 0 0 0-.702-1.826 2.246 2.246 0 0 0-1.685-.702Zm9.267-23.308a2.246 2.246 0 0 0-1.685.842c-.427.404-.68.958-.703 1.545a2.106 2.106 0 0 0 .703 1.685c.446.448 1.052.7 1.685.702a2.387 2.387 0 0 0 1.684-.702c.448-.446.7-1.052.702-1.685a2.106 2.106 0 0 0-.701-1.685 2.527 2.527 0 0 0-1.685-.561v-.14Zm-1.825 8.565h3.51v19.658h-3.51v-19.658Zm27.66 4.634a9.407 9.407 0 0 0-3.65-3.65 11.373 11.373 0 0 0-10.531 0 9.407 9.407 0 0 0-3.65 3.65 10.812 10.812 0 0 0 0 10.25 9.407 9.407 0 0 0 3.65 3.65 11.233 11.233 0 0 0 10.53 0 9.407 9.407 0 0 0 3.651-3.65 10.812 10.812 0 0 0 0-10.25Zm-3.089 8.705a6.038 6.038 0 0 1-2.386 2.528 7.02 7.02 0 0 1-6.74 0 6.318 6.318 0 0 1-2.388-2.528 7.863 7.863 0 0 1 0-7.16 6.178 6.178 0 0 1 2.388-2.388 7.02 7.02 0 0 1 6.74 0 5.897 5.897 0 0 1 2.386 2.388 8.004 8.004 0 0 1 0 7.16Z"/>
</svg>
